app/client/src/assets/icons/blueprintjs/20px/notifications-updated.svg

<?xml version="1.0" encoding="UTF-8"?>
<svg width="20px" height="20px" viewBox="0 0 20 20" version="1.1" xmlns="http://www.w3.org/2000/svg" xmlns:xlink="http://www.w3.org/1999/xlink">
    <!-- Generator: Sketch 50.2 (55047) - http://www.bohemiancoding.com/sketch -->
    <title>Artboard</title>
    <desc>Created with Sketch.</desc>
    <defs></defs>
    <g id="Artboard" stroke="none" stroke-width="1" fill="none" fill-rule="evenodd">
        <path d="M10,20 C11.1,20 12,19.1 12,18 L8,18 C8,19.1 8.9,20 10,20 Z M12,2.16579516 C11.6799974,2.05089567 11.3388236,1.99 10.99,1.99 C9.33106136,1.99 8,3.33967761 8,4.99 C8,5.79826358 8.31863966,6.54706679 8.87578644,7.10421356 L11.8457864,10.0942136 C12.4020302,10.6504573 13.1609441,10.97 13.96,10.97 C14.724071,10.97 15.4514382,10.6778257 16,10.1659071 L16,14 C16,14.55 16.45,15 17,15 C17.55,15 18,15.45 18,16 C18,16.55 17.55,17 17,17 L3,17 C2.45,17 2,16.55 2,16 C2,15.45 2.45,15 3,15 C3.55,15 4,14.55 4,14 L4,8 C4,5.39 5.67,3.19 8,2.37 L8,2 C8,0.9 8.9,0 10,0 C11.1,0 12,0.9 12,2 L12,2.16579516 Z M13.26,8.68 L10.29,5.69 C10.11,5.51 10,5.27 10,4.99 C10,4.44 10.44,3.99 10.99,3.99 C11.26,3.99 11.51,4.1 11.69,4.28 L13.97,6.56 L18.24,2.29 C18.42,2.11 18.67,2 18.94,2 C19.49,2 19.94,2.45 19.94,3 C19.94,3.28 19.83,3.53 19.64,3.7 L14.66,8.68 C14.48,8.86 14.23,8.97 13.96,8.97 C13.69,8.97 13.44,8.86 13.26,8.68 Z" id="Shape" fill="#000000" fill-rule="nonzero"></path>
    </g>
</svg>

<svg xmlns="http://www.w3.org/2000/svg" width="20" height="20"><path fill-rule="nonzero" d="M10 20c1.1 0 2-.9 2-2H8c0 1.1.9 2 2 2Zm2-17.834A2.994 2.994 0 0 0 8 4.99c0 .808.319 1.557.876 2.114l2.97 2.99a2.99 2.99 0 0 0 4.154.072V14c0 .55.45 1 1 1s1 .45 1 1-.45 1-1 1H3c-.55 0-1-.45-1-1s.45-1 1-1 1-.45 1-1V8c0-2.61 1.67-4.81 4-5.63V2c0-1.1.9-2 2-2s2 .9 2 2v.166Zm1.26 6.514-2.97-2.99a.973.973 0 0 1-.29-.7c0-.55.44-1 .99-1 .27 0 .52.11.7.29l2.28 2.28 4.27-4.27a.99.99 0 0 1 .7-.29c.55 0 1 .45 1 1 0 .28-.11.53-.3.7l-4.98 4.98a.99.99 0 0 1-1.4 0Z"/></svg>
